X: 9
T: Young Tom Ennis
Z: UPipes & harp
S: https://thesession.org/tunes/131#setting50509
R: jig
M: 6/8
L: 1/8
K: Ador
|:AB|c2A BcB|AGE GAB|c2A Bed|BAG A2B|
c2A BcB|AGE GAB|cde dBG|BAG A2:|
|:f|g2e age|dBG Gef|g2e agf|efg a2b|
g2e age|dBG GAB|c2A Bed|BAG A2:|

%-------------------- TUNE SEPARATOR --------------------%

